X: 305594
M: 6/8
L: 1/8
K: D
|:\
ecA AcA | ecA AcA | (dc)d Bcd | AFD D3 :|
|:\
ecA AcA | ecA d2A | GBG FAF | BGE E2e |\
ecA AcA | ecA AcA | dcd Bcd | AFD D3 :|


